packages/dnb-eufemia/assets/icons/split_medium.svg

<svg width="24" height="24" viewBox="0 0 24 24" fill="none" xmlns="http://www.w3.org/2000/svg">
<path d="M20.25 14.998L23.25 17.998M23.25 17.998L20.25 20.998M23.25 17.998L18 18C14.25 18 11.25 12 11.25 12M20.25 2.99805L23.25 5.99805M23.25 5.99805L20.25 8.99805M23.25 5.99805L18 6.00005C14.25 6.00005 11.25 12 11.25 12M11.25 12L0.75 11.998" stroke="black" stroke-width="1.5" stroke-linecap="round" stroke-linejoin="round"/>
</svg>

<svg width="24" height="24" viewBox="0 0 24 24" fill="none" xmlns="http://www.w3.org/2000/svg"><path d="m20.25 14.998 3 3m0 0-3 3m3-3L18 18c-3.75 0-6.75-6-6.75-6m9-9.002 3 3m0 0-3 3m3-3L18 6c-3.75 0-6.75 6-6.75 6m0 0-10.5-.002" stroke="#000" stroke-width="1.5" stroke-linecap="round" stroke-linejoin="round"/></svg>
